v2/perps-v2/ui/public/asset-icons/BTC.svg

<svg width="42" height="42" viewBox="0 0 42 42" fill="none" xmlns="http://www.w3.org/2000/svg">
<g clip-path="url(#clip0_1097_26624)">
<path d="M21 42C32.598 42 42 32.598 42 21C42 9.40202 32.598 0 21 0C9.40202 0 0 9.40202 0 21C0 32.598 9.40202 42 21 42Z" fill="#F7931A"/>
<path d="M30.4358 18.4012C30.848 15.6503 28.7519 14.1711 25.888 13.1841L26.8173 9.45656L24.5493 8.89219L23.6436 12.5212C23.0478 12.3716 22.4361 12.2325 21.8258 12.0934L22.738 8.44069L20.47 7.875L19.5408 11.6012C19.0473 11.4883 18.5616 11.3781 18.0918 11.2599L18.0944 11.2481L14.9654 10.4672L14.3616 12.8901C14.3616 12.8901 16.0456 13.2759 16.0101 13.2996C16.9289 13.5293 17.0943 14.1369 17.0667 14.6199L16.0088 18.8659C16.0718 18.8816 16.1532 18.9052 16.2451 18.9407L16.0049 18.8816L14.5218 24.8299C14.4089 25.1081 14.1241 25.5268 13.481 25.368C13.5046 25.4008 11.8325 24.9572 11.8325 24.9572L10.7063 27.5533L13.6595 28.2896C14.2081 28.4274 14.7462 28.5718 15.2751 28.707L14.3367 32.4765L16.6034 33.0409L17.5326 29.3134C18.1521 29.4801 18.7533 29.6349 19.3413 29.7819L18.4146 33.4937L20.6826 34.0581L21.6211 30.2964C25.4903 31.0288 28.3988 30.7335 29.6234 27.2344C30.6104 24.4177 29.5748 22.7916 27.5391 21.7324C29.0223 21.3911 30.1379 20.4159 30.4358 18.4012ZM25.2515 25.6699C24.5519 28.4878 19.8072 26.964 18.269 26.5821L19.5158 21.588C21.0541 21.9726 25.9851 22.7325 25.2515 25.6699ZM25.9536 18.3606C25.3145 20.9239 21.3665 19.6206 20.0868 19.3016L21.2155 14.7735C22.4952 15.0924 26.6204 15.687 25.9536 18.3606Z" fill="white"/>
</g>
<defs>
<clipPath id="clip0_1097_26624">
<rect width="42" height="42" fill="white"/>
</clipPath>
</defs>
</svg>

<svg width="42" height="42" fill="none" xmlns="http://www.w3.org/2000/svg"><g clip-path="url(#a)"><path d="M21 42c11.598 0 21-9.402 21-21S32.598 0 21 0 0 9.402 0 21s9.402 21 21 21Z" fill="#F7931A"/><path d="M30.436 18.401c.412-2.75-1.684-4.23-4.548-5.217l.93-3.727-2.269-.565-.905 3.63c-.596-.15-1.208-.29-1.818-.429l.912-3.652-2.268-.566-.93 3.726c-.493-.113-.978-.223-1.448-.341l.002-.012-3.129-.78-.603 2.422s1.684.386 1.648.41c.919.23 1.084.837 1.057 1.32l-1.058 4.246c.063.016.144.04.236.075l-.24-.06-1.483 5.949c-.113.278-.398.697-1.041.538.024.033-1.649-.41-1.649-.41l-1.126 2.595 2.954.737c.548.137 1.086.282 1.615.417l-.938 3.77 2.266.564.93-3.728c.62.167 1.22.322 1.808.469l-.926 3.712 2.268.564.938-3.762c3.87.733 6.778.438 8.002-3.062.987-2.816-.048-4.442-2.084-5.502 1.483-.34 2.599-1.316 2.897-3.33Zm-5.184 7.269c-.7 2.818-5.445 1.294-6.983.912l1.247-4.994c1.538.385 6.47 1.145 5.736 4.082Zm.702-7.31c-.64 2.564-4.588 1.26-5.867.942l1.128-4.528c1.28.318 5.405.913 4.739 3.587Z" fill="#fff"/></g><defs><clipPath id="a"><path fill="#fff" d="M0 0h42v42H0z"/></clipPath></defs></svg>
